X:642
T:Miss Hopkins
R:Reel
C:William Marshall
B:The Athole Collection
M:C|
L:1/8
K:B_
B|F>GBd e2 eg|fdc>B cBGB|F>GBd e2 eg|fdcd B/B/B ~B:|
f|gaba gfed|cBcd cGGf|gaba gfed|c>Bcd B/B/B ~Bf|gaba gfed|
c>Bcd cGGB|FGBc defg|fdcd B/B/B ~B||

